svg/fluentui-system-icons/ic_fluent_balloon_12_regular.svg

<svg width="12" height="12" viewBox="0 0 12 12" fill="none" xmlns="http://www.w3.org/2000/svg">
<path d="M5.00498 3.4296C5.04386 3.15621 5.29701 2.9661 5.5704 3.00498C6.30797 3.10988 6.89039 3.69171 6.9962 4.42897C7.03543 4.70232 6.84564 4.9557 6.5723 4.99493C6.29896 5.03416 6.04557 4.84437 6.00634 4.57103C5.96366 4.27364 5.7271 4.03733 5.4296 3.99502C5.15621 3.95614 4.9661 3.70299 5.00498 3.4296ZM2 4.36364C2 2.48429 3.58918 1 5.5 1C7.41082 1 9 2.48429 9 4.36364C9 5.59911 8.53933 6.7387 7.8958 7.57241C7.38607 8.23279 6.71092 8.76136 6 8.93727V9.39999C6 9.62091 6.17909 9.79999 6.4 9.79999H7.60001C8.37321 9.79999 9.00001 10.4268 9.00001 11.2V11.5C9.00001 11.7761 8.77615 12 8.50001 12C8.22386 12 8.00001 11.7761 8.00001 11.5V11.2C8.00001 10.9791 7.82092 10.8 7.60001 10.8H6.4C5.6268 10.8 5 10.1732 5 9.39999V8.93735C4.28929 8.7617 3.61415 8.23398 3.10428 7.57379C2.4606 6.74035 2 5.60069 2 4.36364ZM5.5 2C4.09711 2 3 3.0799 3 4.36364C3 5.35685 3.37273 6.28538 3.89572 6.96255C4.43393 7.65943 5.05441 8 5.5 8C5.94529 8 6.56577 7.65894 7.1042 6.96139C7.62734 6.28363 8 5.35505 8 4.36364C8 3.0799 6.90289 2 5.5 2Z" fill="#212121"/>
</svg>

<svg xmlns="http://www.w3.org/2000/svg" width="12" height="12"><path d="M5.005 3.43a.5.5 0 0 1 .565-.425c.738.105 1.32.687 1.426 1.424a.5.5 0 1 1-.99.142.682.682 0 0 0-.576-.576.5.5 0 0 1-.425-.565ZM2 4.364C2 2.484 3.59 1 5.5 1S9 2.484 9 4.364c0 1.235-.46 2.375-1.104 3.208-.51.66-1.185 1.19-1.896 1.365V9.4c0 .22.18.4.4.4h1.2A1.4 1.4 0 0 1 9 11.2v.3a.5.5 0 0 1-1 0v-.3a.4.4 0 0 0-.4-.4H6.4A1.4 1.4 0 0 1 5 9.4v-.463c-.71-.175-1.386-.703-1.896-1.363A5.323 5.323 0 0 1 2 4.364ZM5.5 2C4.097 2 3 3.08 3 4.364c0 .993.373 1.921.896 2.599C4.434 7.659 5.054 8 5.5 8c.445 0 1.066-.341 1.604-1.039A4.324 4.324 0 0 0 8 4.364C8 3.08 6.903 2 5.5 2Z"/></svg>
